icons/stadium-15.svg

<?xml version="1.0" encoding="UTF-8" standalone="no"?>
<!-- Created with Inkscape (http://www.inkscape.org/) -->

<svg
   xmlns:dc="http://purl.org/dc/elements/1.1/"
   xmlns:cc="http://creativecommons.org/ns#"
   xmlns:rdf="http://www.w3.org/1999/02/22-rdf-syntax-ns#"
   xmlns:svg="http://www.w3.org/2000/svg"
   xmlns="http://www.w3.org/2000/svg"
   xmlns:sodipodi="http://sodipodi.sourceforge.net/DTD/sodipodi-0.dtd"
   xmlns:inkscape="http://www.inkscape.org/namespaces/inkscape"
   version="1.1"
   width="15"
   height="15"
   id="svg4619"
   inkscape:version="0.91 r13725"
   sodipodi:docname="stadium-15.svg"
   viewBox="0 0 15 15">
  <sodipodi:namedview
     pagecolor="#ffffff"
     bordercolor="#666666"
     borderopacity="1"
     objecttolerance="10"
     gridtolerance="10"
     guidetolerance="10"
     inkscape:pageopacity="0"
     inkscape:pageshadow="2"
     inkscape:window-width="1570"
     inkscape:window-height="998"
     id="namedview3359"
     inkscape:document-units="px"
     showgrid="false"
     inkscape:zoom="1"
     inkscape:cx="8.0435156"
     inkscape:cy="10.276202"
     inkscape:current-layer="svg4619"
     inkscape:snap-bbox="true"
     inkscape:bbox-paths="true"
     inkscape:bbox-nodes="true"
     inkscape:snap-bbox-edge-midpoints="true"
     inkscape:snap-bbox-midpoints="true"
     inkscape:object-paths="true"
     inkscape:object-nodes="true"
     inkscape:snap-intersection-paths="true"
     inkscape:snap-smooth-nodes="true"
     inkscape:window-x="0"
     inkscape:window-y="0"
     inkscape:window-maximized="0"
     inkscape:snap-object-midpoints="false"
     inkscape:snap-center="true"
     inkscape:snap-nodes="true"
     showguides="true">
    <inkscape:grid
       type="xygrid"
       id="grid3333"
       spacingx="0.5"
       spacingy="0.5"
       color="#ff0000"
       opacity="0.1254902"
       empspacing="2" />
  </sodipodi:namedview>
  <defs
     id="defs4621" />
  <metadata
     id="metadata4624">
    <rdf:RDF>
      <cc:Work
         rdf:about="">
        <dc:format>image/svg+xml</dc:format>
        <dc:type
           rdf:resource="http://purl.org/dc/dcmitype/StillImage" />
        <dc:title></dc:title>
      </cc:Work>
    </rdf:RDF>
  </metadata>
  <path
     style="color:#000000;clip-rule:nonzero;display:inline;overflow:visible;visibility:visible;opacity:1;isolation:auto;mix-blend-mode:normal;color-interpolation:sRGB;color-interpolation-filters:linearRGB;solid-color:#000000;solid-opacity:1;fill:#000000;fill-opacity:1;fill-rule:nonzero;stroke:none;stroke-width:2;stroke-linecap:butt;stroke-linejoin:miter;stroke-miterlimit:4;stroke-dasharray:none;stroke-dashoffset:0;stroke-opacity:1;marker:none;color-rendering:auto;image-rendering:auto;shape-rendering:auto;text-rendering:auto;enable-background:accumulate"
     d="M 7 1 L 7 3 L 7 4.5 L 7 5.0097656 A 5.5 2 0 0 0 2 7 L 2 11.5 C 2 12.604569 4.4624339 13.5 7.5 13.5 C 10.537566 13.5 13 12.604569 13 11.5 L 13 7 A 5.5 2 0 0 0 8 5.0097656 L 8 4.0625 L 11 2.75 L 7 1 z M 3 8.1464844 A 5.5 2 0 0 0 5 8.7792969 L 5 11.746094 C 3.7948133 11.476964 3 11.019865 3 10.5 L 3 8.1464844 z M 12 8.1484375 L 12 10.5 C 12 11.019865 11.205187 11.476964 10 11.746094 L 10 8.78125 A 5.5 2 0 0 0 12 8.1484375 z M 6 8.921875 A 5.5 2 0 0 0 7.5 9 A 5.5 2 0 0 0 9 8.9238281 L 9 11.908203 C 8.5286994 11.964047 8.0287758 12 7.5 12 C 6.9712242 12 6.4713006 11.964047 6 11.908203 L 6 8.921875 z "
     id="path4177" />
</svg>

<?xml version="1.0" encoding="utf-8"?>
<!-- Generator: Adobe Illustrator 19.2.1, SVG Export Plug-In . SVG Version: 6.00 Build 0)  -->
<!DOCTYPE svg PUBLIC "-//W3C//DTD SVG 1.1//EN" "http://www.w3.org/Graphics/SVG/1.1/DTD/svg11.dtd">
<svg version="1.1"
	 id="svg4619" inkscape:version="0.91 r13725" sodipodi:docname="stadium-15.svg" xmlns:cc="http://creativecommons.org/ns#" xmlns:dc="http://purl.org/dc/elements/1.1/" xmlns:inkscape="http://www.inkscape.org/namespaces/inkscape" xmlns:rdf="http://www.w3.org/1999/02/22-rdf-syntax-ns#" xmlns:sodipodi="http://sodipodi.sourceforge.net/DTD/sodipodi-0.dtd" xmlns:svg="http://www.w3.org/2000/svg"
	 xmlns="http://www.w3.org/2000/svg" xmlns:xlink="http://www.w3.org/1999/xlink" x="0px" y="0px" width="15px" height="15px"
	 viewBox="0 0 15 15" style="enable-background:new 0 0 15 15;" xml:space="preserve">
<path id="path4177" d="M7,1v2v1.5v0.5098C4.1695,5.1037,2.0021,5.9665,2,7v4.5c0,1.1046,2.4624,2,5.5,2s5.5-0.8954,5.5-2V7
	c-0.0021-1.0335-2.1695-1.8963-5-1.9902V4.0625L11,2.75L7,1z M3,8.1465c0.5148,0.2671,1.2014,0.4843,2,0.6328v2.9668
	C3.7948,11.477,3,11.0199,3,10.5V8.1465z M12,8.1484V10.5c0,0.5199-0.7948,0.977-2,1.2461V8.7812
	C10.7986,8.6328,11.4852,8.4155,12,8.1484z M6,8.9219C6.4877,8.973,6.9925,8.9992,7.5,9C8.0073,8.9999,8.5121,8.9743,9,8.9238
	v2.9844C8.5287,11.964,8.0288,12,7.5,12S6.4713,11.964,6,11.9082V8.9219z"/>
</svg>
